X:5
T:L'escrivèto
T:La femme aux sarrazins
R:Chanson
O:France
B:Le livre des Chansons (Henri Davenson) n°5
Z:<anamnese@caramail.com> -- http://anamnese.fr.st
M:2/4
L:1/8
Q:1/4=110
K:G
D | G>A B B | A2 B B | G>A B B | [M:3/8] A2 B B G A |
[M:2/4] B2 d2 | A A G A | A2 B2 | G4 ||
W:Jean-Pierre de Provence se marie aujourd'hui (2x)
W:Il prend femme si jeune qu'il ne peut s'en servir.
W:Il est parti en guerre sept ans sans revenir.
W:Au bout de la huitième il revient au pays /.../

